X: 1
T: Lullaby Of Muffe
M: 3/4
L: 1/8
R: waltz
K: Emin
|:B3G2A|B3E3|F2A G2F|G2F E3/2 F/2G/2A/2|
B3G2A|B3E3|F2A G2F|E3-E3:|
|:FFF F2G|A2G F3|G2A B2A|G3F3|
FFF F2G|A2G F3|AAA A2B|G2F E3:|
